!!!!SEGMENT: pl-sa--l-1643--044_anonim--nihil-est-annae-gremio-toti-mundo.krn
!!!cenid: 16xx:1402
!!!COM: Anonim
!!!COM-rismid: pe30004985
!!!CDT:
!!!CNT:
!!!OTL: Nihil est Annae gremio toti mundo
!!!PDT:
!!!AGN: Sacred
!!!SMS-siglum: PL-SA
!!!SMS-shelfmark: L 1643
!!!SMS-shelfwork: 044 W
!!!SMS-variant:
!!!SMS-altvar:
!!!NIFC-rismid: 1001064624
!!!URL-scan: http://repozytorium.nifc.pl/skany/pl-sa-nut--l1643
!!!ONB-nifc: UWAGA: 8 ksiąg. Primi chori: 1mus Cantus (74-75), C 2dus (74-75), C 3tius (72-73), Bassus (69-70); Secondi chori: Primus Cantus (70-71), C 2dus (73-74), Altus (71), Bassus (71-72). UWAGA: metrum 2/2 i 3/2. Nie dodawać pustych linii, chyba że w rękopisie pojawiają się dodatkowe oznaczenia dotyczące pełnej obsady (a 4, a 8 itp)
!!!AIN: 8 empty
!!!key:
**kern	**text	**kern	**text	**kern	**text	**kern	**text	**kern	**text	**kern	**text	**kern	**text	**kern	**text
*part8	*part8	*part7	*part7	*part6	*part6	*part5	*part5	*part4	*part4	*part3	*part3	*part2	*part2	*part1	*part1
*staff8	*staff8	*staff7	*staff7	*staff6	*staff6	*staff5	*staff5	*staff4	*staff4	*staff3	*staff3	*staff2	*staff2	*staff1	*staff1
*Iempty	*	*Iempty	*	*Iempty	*	*Iempty	*	*Iempty	*	*Iempty	*	*Iempty	*	*Iempty	*
*I"Secondi chori: Bassus	*	*I"Secondi chori: Altus	*	*I"Secondi chori: C 2dus	*	*I"Secondi chori: Primus Cantus	*	*I"Primi chori: Bassus	*	*I"Primi chori: C 3tius	*	*I"Primi chori: C 2dus	*	*I"Primi chori: 1mus Cantus	*
*I'Coro 2 B	*	*I'Coro 2 A	*	*I'Coro 2 C 2	*	*I'Coro 2 C 1	*	*I'Coro 1 B	*	*I'Coro 1 C 3	*	*I'Coro 1 C 2	*	*I'Coro 1 C 1	*
*clefC3	*	*clefC2	*	*clefC1	*	*clefG2	*	*clefC3	*	*clefC2	*	*clefC1	*	*clefG2	*
*k[b-]	*	*k[b-]	*	*k[b-]	*	*k[b-]	*	*k[b-]	*	*k[b-]	*	*k[b-]	*	*k[b-]	*
*B-:	*	*B-:	*	*B-:	*	*B-:	*	*B-:	*	*B-:	*	*B-:	*	*B-:	*
*M2/2	*	*M2/2	*	*M2/2	*	*M2/2	*	*M2/2	*	*M2/2	*	*M2/2	*	*M2/2	*
*met(C|)	*	*met(C|)	*	*met(C|)	*	*met(C|)	*	*met(C|)	*	*met(C|)	*	*met(C|)	*	*met(C|)	*
=1-	=1-	=1-	=1-	=1-	=1-	=1-	=1-	=1-	=1-	=1-	=1-	=1-	=1-	=1-	=1-
!!LO:TX:t=P:problem:oddech jako rozdzielacz słów:global
00r	.	00r	.	00r	.	00r	.	2B-/	Ni-	2f\	Ni-	2b-\	Ni-	2dd\	Ni-
.	.	.	.	.	.	.	.	4B-/	-hil	4f\	-hil	4b-\	-hil	4dd\	-hil
.	.	.	.	.	.	.	.	4B-/	est	4f\	eſt	4b-\	eſt	4dd\	eſt
=2-	=2-	=2-	=2-	=2-	=2-	=2-	=2-	=2-	=2-	=2-	=2-	=2-	=2-	=2-	=2-
.	.	.	.	.	.	.	.	2e-X\	An-	2g\	An-	4g\	An-	2ee-X\	An-
.	.	.	.	.	.	.	.	.	.	.	.	4a\	.	.	.
.	.	.	.	.	.	.	.	2B-/	-nae	2f\	-nae	2b-\	-nae	2dd\	-nae
=3-	=3-	=3-	=3-	=3-	=3-	=3-	=3-	=3-	=3-	=3-	=3-	=3-	=3-	=3-	=3-
.	.	.	.	.	.	.	.	2.F/	gre-	2.f\	gre-	2.a\	gre-	2.cc\	gre-
.	.	.	.	.	.	.	.	4F/	-mi-	4f\	-mi-	4a\	-mi-	4cc\	-mi-
=4-	=4-	=4-	=4-	=4-	=4-	=4-	=4-	=4-	=4-	=4-	=4-	=4-	=4-	=4-	=4-
.	.	.	.	.	.	.	.	4B-/	-o	4f\	-o	4b-,<\	-o	4dd\	-o
.	.	.	.	.	.	.	.	2B-/	to-	2b-\	to-	2dd\	to-	2ff\	to-
.	.	.	.	.	.	.	.	4B-/	-ti	4b-\	-ti	4cc\	-ti	4ff\	-ti
=5-	=5-	=5-	=5-	=5-	=5-	=5-	=5-	=5-	=5-	=5-	=5-	=5-	=5-	=5-	=5-
0r	.	0r	.	0r	.	0r	.	2B-/	mun-	2b-\	mun-	2dd\	mun-	2ff\	mun-
.	.	.	.	.	.	.	.	4c/	-do	4g\	-do	4cc\	-do	4ee-X\	-do
.	.	.	.	.	.	.	.	8d\L	ce-	4g\	ce-	4b-\	ce-	4dd\	ce-
.	.	.	.	.	.	.	.	8eny\J	.	.	.	.	.	.	.
=6-	=6-	=6-	=6-	=6-	=6-	=6-	=6-	=6-	=6-	=6-	=6-	=6-	=6-	=6-	=6-
.	.	.	.	.	.	.	.	2.f\	-le-	2.a\	-le-	2.a\	-le-	2.cc\	-le-
.	.	.	.	.	.	.	.	4f\	-bri-	4a\	-bri-	4a\	-bri-	4cc\	-bri-
=7-	=7-	=7-	=7-	=7-	=7-	=7-	=7-	=7-	=7-	=7-	=7-	=7-	=7-	=7-	=7-
4r	.	4r	.	4r	.	4r	.	2B-/	-us	2f\	-us	2b-\	-us.	2b-/	-us
4B-/	Quod	4f\	Quod	4b-\	Quod	4dd\	Quod	.	.	.	.	.	.	.	.
*	*	*	*	*	*	*	*	*	*	*	*	*custos:dd	*	*custos:ff	*
4G/	e-	4g\	e-	4dd\	e-	4b-/	e-	2r	.	2r	.	2r	.	2r	.
4A/	-xor-	4c/	-xor-	4cc\	-xor-	4cc\	-xor-	.	.	.	.	.	.	.	.
=8-	=8-	=8-	=8-	=8-	=8-	=8-	=8-	=8-	=8-	=8-	=8-	=8-	=8-	=8-	=8-
!	!	!	!	!	!	!	!	!	!	!	!	!LO:LB:g=original	!	!LO:LB:g=original	!
2B-/	-na-	2f\	-na-	2b-\	-na-	2dd\	-na-	4r	.	4r	.	4r	.	4r	.
.	.	.	.	.	.	.	.	4B-/	Quod	4f\	Quod	4dd\	Quod	4ff\	Quod
4B-/	-tur	4f\	-tur	4b-\	-tur	4dd\	-tur	4B-/	e-	4f\	e-	4b-\	e-	4dd\	e-
*	*	*	*	*	*	*	*	*custos:f	*	*	*	*	*	*	*
4r	.	4r	.	4r	.	4r	.	4G/	-xor-	4g\	-xor-	4b-\	-xor-	4eeny\	-xor-
=9-	=9-	=9-	=9-	=9-	=9-	=9-	=9-	=9-	=9-	=9-	=9-	=9-	=9-	=9-	=9-
!	!	!	!	!	!	!	!	!LO:PB:g=original	!	!	!	!	!	!	!
2r	.	2r	.	2r	.	2r	.	2F/	-na-	2a\	-na-	2cc\	-na-	2ff\	-na-
2B-/	li-	2f\	li-	2b-\	li-	2dd\	li-	2B-/	-tur	2f\	-tur	2b-\	-tur	2dd\	-tur
=10-	=10-	=10-	=10-	=10-	=10-	=10-	=10-	=10-	=10-	=10-	=10-	=10-	=10-	=10-	=10-
2.F/	-li-	2.f\	-li-	2.a\	-li-	2.cc\	-li-	2.f\	li-	2.a\	li-	2.cc\	li-	2.ff\	li-
4F/	.	4f\	.	4a\	.	4cc\	.	4f\	-li-	4a\	-li-	4cc\	-li-	4ff\	-li-
=11-	=11-	=11-	=11-	=11-	=11-	=11-	=11-	=11-	=11-	=11-	=11-	=11-	=11-	=11-	=11-
4B-,</	-o	4f,<\	-o	4b-,<\	-o	4dd,<\	-o	2B-/	-o	2f\	-o	2b-\	-o	2ff\	-o
4B-/	Quod	4f\	quod	4b-\	quod	4dd\	quod	.	.	.	.	.	.	.	.
*	*	*	*	*	*	*	*	*	*	*custos:b-	*	*	*	*	*
4B-/	sol	4f\	sol	4b-\	sol	4dd\	sol	2r	.	2r	.	2r	.	2r	.
4B-/	il-	4f\	il-	4b-\	il-	4dd\	il-	.	.	.	.	.	.	.	.
=12-	=12-	=12-	=12-	=12-	=12-	=12-	=12-	=12-	=12-	=12-	=12-	=12-	=12-	=12-	=12-
!	!	!	!	!	!	!	!	!	!	!LO:PB:g=original	!	!	!	!	!
2e-X\	-lus-	4.g\	-lus-	2b-\	-lus-	2ee-X\	-lus-	0r	.	0r	.	0r	.	0r	.
.	.	8a\	.	.	.	.	.	.	.	.	.	.	.	.	.
2B-/	-trat	2b-\	-trat	2b-\	-trat	2dd\	-trat	.	.	.	.	.	.	.	.
=13-	=13-	=13-	=13-	=13-	=13-	=13-	=13-	=13-	=13-	=13-	=13-	=13-	=13-	=13-	=13-
2.f\	Fi-	2.a\	Fi-	2.cc\	Fi-	2.cc\	fi-	.	.	.	.	.	.	.	.
*custos:B-	*	*	*	*	*	*	*	*	*	*	*	*	*	*	*
4f\	-li-	4a\	-li-	4cc\	-li-	4cc\	-li-	.	.	.	.	.	.	.	.
=14-	=14-	=14-	=14-	=14-	=14-	=14-	=14-	=14-	=14-	=14-	=14-	=14-	=14-	=14-	=14-
!LO:LB:g=original	!	!	!	!	!	!	!	!	!	!	!	!	!	!	!
2B-/	-us	2b-\	-us	2b-\	-us	2dd\	-us	2r	.	2r	.	2r	.	2r	.
*	*	*	*	*custos:b-	*	*	*	*	*	*	*	*	*	*	*
2r	.	2r	.	2r	.	2r	.	4B-/	Dul-	4b-\	Dul-	4dd\	Dul-	4ff\	Dul-
.	.	.	.	.	.	.	.	4B-/	-ce	4b-\	-ce	4dd\	-ce	4ff\	-ce
=15-	=15-	=15-	=15-	=15-	=15-	=15-	=15-	=15-	=15-	=15-	=15-	=15-	=15-	=15-	=15-
!	!	!	!	!LO:LB:g=original	!	!	!	!	!	!	!	!	!	!	!
0r	.	0r	.	0r	.	0r	.	2B-/	no-	2b-\	no-	2dd\	no-	2ff\	no-
.	.	.	.	.	.	.	.	4e-X\	-men	4g\	-men	4b-\	-men	4ee-X\	-men
.	.	.	.	.	.	.	.	4B-/	est	4b-\	eſt	4b-\	est	4dd\	eſt
=16-	=16-	=16-	=16-	=16-	=16-	=16-	=16-	=16-	=16-	=16-	=16-	=16-	=16-	=16-	=16-
.	.	.	.	.	.	.	.	2.f\	An-	2.a\	An-	2.cc\	An-	2.ff\	<.....>
.	.	.	.	.	.	.	.	4f\	-nae	4a\	-nae	4cc\	.	4ff\	.
=17-	=17-	=17-	=17-	=17-	=17-	=17-	=17-	=17-	=17-	=17-	=17-	=17-	=17-	=17-	=17-
4r	.	4r	.	4r	.	4r	.	2B-/	.	2b-\	.	2dd\	-nae	2ff\	.
*	*	*custos:f	*	*	*	*	*	*	*	*	*	*	*	*	*
4B-/	dul-	4f\	dul-	4b-\	dul-	4dd\	dul-	.	.	.	.	.	.	.	.
!	!	!LO:LB:g=original	!	!LO:LB:g=original	!	!	!	!	!	!	!	!	!	!	!
4B-/	-ce	4f\	-ce	4b-\	-ce	4dd\	-ce	2r	.	2r	.	2r	.	2r	.
*	*	*	*	*	*	*custos:cc	*	*	*	*	*	*	*	*	*
4B-/	ma-	4f\	ma-	4b-\	ma-	4dd\	ma-	.	.	.	.	.	.	.	.
=18-	=18-	=18-	=18-	=18-	=18-	=18-	=18-	=18-	=18-	=18-	=18-	=18-	=18-	=18-	=18-
!	!	!LO:TX:t=P:problem=nieczytelne źródło	!	!	!LO:LB:g=original	!	!	!	!	!	!	!	!	!	!
2f\	-ter-	2ryy	.	2a\	-ter-	2cc\	-ter-	0r	.	0r	.	0r	.	0r	.
2d\	-nam	2f\	-num	2b-\	-num	2dd\	-num	.	.	.	.	.	.	.	.
=19-	=19-	=19-	=19-	=19-	=19-	=19-	=19-	=19-	=19-	=19-	=19-	=19-	=19-	=19-	=19-
2.c/	Vir-	2.g\	Vir-	2.g/	Vir-	2.ee-X\	Vir-	.	.	.	.	.	.	.	.
4c/	-gi-	4c/	-gi-	4a\	-gi-	4ee-\	-gi-	.	.	.	.	.	.	.	.
=20-	=20-	=20-	=20-	=20-	=20-	=20-	=20-	=20-	=20-	=20-	=20-	=20-	=20-	=20-	=20-
2B-/	-nis	2f\	-nis	2b-\	-nis	2dd\	-nis	4r	.	4r	.	4r	.	4r	.
.	.	.	.	.	.	.	.	4B-/	Dul-	4b-\	Dul-	4dd\	Dul-	4ff\	Dul-
2r	.	2r	.	2r	.	2r	.	4B-/	-ci-	4b-\	-ci-	4dd\	-ci-	4ff\	-ci-
*	*	*	*	*	*	*	*	*	*	*	*	*	*	*custos:ee-	*
.	.	.	.	.	.	.	.	4B-/	-us	4b-\	-us	4dd\	-us	4ff\	-us
=21-	=21-	=21-	=21-	=21-	=21-	=21-	=21-	=21-	=21-	=21-	=21-	=21-	=21-	=21-	=21-
*	*	*	*	*	*	*	*	*	*	*	*	*custos:b-	*	*	*
!	!	!	!	!	!	!	!	!	!	!	!	!	!	!LO:PB:g=original	!
0r	.	0r	.	0r	.	0r	.	4c/	eſt	4g\	eſt	4cc\	eſt	4ee-X\	est
!	!	!	!	!	!	!	!	!	!	!	!	!LO:LB:g=original	!	!	!
.	.	.	.	.	.	.	.	8d\L	in-	4g\	in-	4b-\	in	4dd\	in
.	.	.	.	.	.	.	.	8eny\J	.	.	.	.	.	.	.
.	.	.	.	.	.	.	.	4.f\	-fan-	4.f\	-fan-	4.a\	-fan-	4.cc\	-fan-
*	*	*	*	*	*	*	*	*custos:B-	*	*	*	*	*	*	*
.	.	.	.	.	.	.	.	8f\	-ti-	8f\	-ti-	8a\	-ti-	8cc\	-ti-
=22-	=22-	=22-	=22-	=22-	=22-	=22-	=22-	=22-	=22-	=22-	=22-	=22-	=22-	=22-	=22-
!	!	!	!	!	!	!	!	!LO:LB:g=original	!	!	!	!	!	!	!
.	.	.	.	.	.	.	.	4B-/	-ae	4f\	-ae	4b-\	-ae	4dd\	-ae
.	.	.	.	.	.	.	.	4d\	re-	4f\	re-	4a\	re-	4ff\	re-
.	.	.	.	.	.	.	.	4B-/	-pa-	4b-\	-pa-	4b-\	-pa-	4dd\	-pa-
.	.	.	.	.	.	.	.	4B-/	-ra-	4b-\	-tri-	4dd\	-ra-	4dd\	-ra-
=23-	=23-	=23-	=23-	=23-	=23-	=23-	=23-	=23-	=23-	=23-	=23-	=23-	=23-	=23-	=23-
1r	.	1r	.	1r	.	1r	.	4c/	-tri-	4g\	-cis	4cc\	-tri-	8eeny\L	-tri-
.	.	.	.	.	.	.	.	.	.	.	.	.	.	8ff\J	.
.	.	.	.	.	.	.	.	4e-X\	-cis	4g\	ho-	8b-\L	-cis	4gg\	-cis
.	.	.	.	.	.	.	.	.	.	.	.	8cc\J	.	.	.
!	!	!	!	!	!	!	!	!	!	!	!	!	!	!LO:TX:b:t=P:problem=# below	!
.	.	.	.	.	.	.	.	4.d\	ho-	4.a\	.	4.dd\	ho-	4.ff#X\	ho-
.	.	.	.	.	.	.	.	8d\	-mi-	8a\	-mi-	8dd\	-mi-	8ff#\	-mi-
=24-	=24-	=24-	=24-	=24-	=24-	=24-	=24-	=24-	=24-	=24-	=24-	=24-	=24-	=24-	=24-
*	*	*	*	*	*	*	*	*	*	*custos:g	*	*	*	*	*
4r	.	4r	.	4r	.	4r	.	2G/	-nis	2g\	-nis	2dd\	-ni	2gg\	-nis
4B-/	Nunc	4f\	Nunc	4b-\	Nunc	4dd\	Nunc	.	.	.	.	.	.	.	.
!	!	!	!	!	!	!	!	!	!	!LO:LB:g=original	!	!	!	!	!
4e-X\	il-	4g\	il-	4f/	il-	4b-/	il-	2r	.	2r	.	2r	.	2r	.
4c/	-la	4e-X/	-la	4a\	-la	4cc\	-la	.	.	.	.	.	.	.	.
=25-	=25-	=25-	=25-	=25-	=25-	=25-	=25-	=25-	=25-	=25-	=25-	=25-	=25-	=25-	=25-
4B-/	strin-	4d/	strin-	4b-\	Strin-	4dd\	strin-	0r	.	0r	.	0r	.	0r	.
4B-/	.	4b-\	.	4dd\	.	4dd\	.	.	.	.	.	.	.	.	.
4.c/	-git	4.g\	-git	4.cc\	-git	4.ee-X\	-git	.	.	.	.	.	.	.	.
8c/	fi-	8g\	fi-	8cc\	fi-	8ee-\	fi-	.	.	.	.	.	.	.	.
=26-	=26-	=26-	=26-	=26-	=26-	=26-	=26-	=26-	=26-	=26-	=26-	=26-	=26-	=26-	=26-
4d\	-liam	4f\	-liam	4a,<\	-liam	4dd\	-liam	.	.	.	.	.	.	.	.
4B-/	au-	4b-\	au-	4dd\	au-	4ff\	au-	.	.	.	.	.	.	.	.
4B-/	-tho-	4b-\	-tho-	4dd\	-tho-	4ff\	-tho-	.	.	.	.	.	.	.	.
*custos:e-	*	*	*	*	*	*	*	*	*	*	*	*	*	*	*
4B-/	-ris	4b-\	-ris	4dd\	-ris	4ff\	-ris	.	.	.	.	.	.	.	.
=27-	=27-	=27-	=27-	=27-	=27-	=27-	=27-	=27-	=27-	=27-	=27-	=27-	=27-	=27-	=27-
!LO:LB:g=original	!	!	!	!	!	!	!	!	!	!	!	!	!	!	!
4e-X\	ma-	4g\	ma-	4b-\	ma-	4ee-X\	ma-	1r	.	1r	.	1r	.	1r	.
4B-/	-trem	4b-\	-trem	4dd\	-trem	4dd\	-trem	.	.	.	.	.	.	.	.
4.f\	Vir-	4.a\	Vir-	4.cc\	Vir-	4.ff\	Vir-	.	.	.	.	.	.	.	.
8f\	-gi-	8a\	-gi-	8cc\	-gi-	8ff\	-gi-	.	.	.	.	.	.	.	.
=28-	=28-	=28-	=28-	=28-	=28-	=28-	=28-	=28-	=28-	=28-	=28-	=28-	=28-	=28-	=28-
*	*	*	*	*custos:b-	*	*	*	*	*	*	*	*	*	*	*
1B-	-ne	1b-	-ne	1dd	-ne	1ff	-ne	2r	.	2r	.	2r	.	2r	.
.	.	.	.	.	.	.	.	4r	.	4r	.	4r	.	4r	.
!	!	!	!	!	!	!	!	!	!	!	!	!	!	!LO:TX:b:t=P:problem=# below	!
.	.	.	.	.	.	.	.	4d\	Nunc	4g\	Nunc	4dd\	Nunc	4ff#X\	Nunc
=29-	=29-	=29-	=29-	=29-	=29-	=29-	=29-	=29-	=29-	=29-	=29-	=29-	=29-	=29-	=29-
*	*	*custos:b-	*	*	*	*custos:dd	*	*	*	*	*	*	*	*	*
!	!	!	!	!LO:LB:g=original	!	!	!	!	!	!	!	!	!	!	!
00r	.	00r	.	00r	.	00r	.	2e-X\	JE-	2g\	JE-	4.b-\	.	2gg\	JE-
.	.	.	.	.	.	.	.	.	.	.	.	8cc\	.	.	.
.	.	.	.	.	.	.	.	4d\	-SV	4a\	-SV	4dd\	JE-	4ffny\	-SV
.	.	.	.	.	.	.	.	2c/	mul-	2g\	mul-	4g,</	-SV	2ee-X\	mul-
=30-	=30-	=30-	=30-	=30-	=30-	=30-	=30-	=30-	=30-	=30-	=30-	=30-	=30-	=30-	=30-
.	.	.	.	.	.	.	.	.	.	.	.	4a\	mul-	.	.
.	.	.	.	.	.	.	.	4B-/	-cet	4b-\	-cet	4b-\	-cet	4dd\	-cet
.	.	.	.	.	.	.	.	4.f\	bra-	4.a\	bra-	4.cc\	bra-	4.cc\	bra-
.	.	.	.	.	.	.	.	8f\	-chi-	8a\	-chi-	8cc\	-chi-	8cc\	-chi-
=31-	=31-	=31-	=31-	=31-	=31-	=31-	=31-	=31-	=31-	=31-	=31-	=31-	=31-	=31-	=31-
*	*	*	*	*	*	*	*	*	*	*	*	*custos:dd	*	*custos:dd	*
.	.	.	.	.	.	.	.	4B-/	-a	4b-\	-a	4b-\	-a	4dd\	-a
!	!	!	!	!	!	!	!	!	!	!	!	!LO:LB:g=original	!	!LO:LB:g=original	!
.	.	.	.	.	.	.	.	4B-/	pur-	4f\	pur-	4dd\	pur-	4dd\	pur-
.	.	.	.	.	.	.	.	4B-/	-pu-	4b-\	-pu-	4dd\	-pu-	4dd\	-pu-
.	.	.	.	.	.	.	.	4B-/	-ran-	4b-\	-ran-	4dd\	-ran-	4dd\	-ran-
=32-	=32-	=32-	=32-	=32-	=32-	=32-	=32-	=32-	=32-	=32-	=32-	=32-	=32-	=32-	=32-
.	.	.	.	.	.	.	.	4c/	-ti-	4g\	-ti-	4cc\	-ti-	4eeny\	-ti-
*	*	*	*	*	*	*	*	*custos:e-	*	*	*	*	*	*	*
.	.	.	.	.	.	.	.	4d\	-a	4d/	-a	4b-\	-a	4ff\	-a
!	!	!	!	!	!	!	!	!LO:LB:g=original	!	!	!	!	!	!	!
.	.	.	.	.	.	.	.	4.e-X\	San-	4.g\	San-	4.cc\	san-	4.gg\	San-
.	.	.	.	.	.	.	.	8e-\	-gui-	8g\	-gui-	8cc\	-gui-	8gg\	-gui-
=33-	=33-	=33-	=33-	=33-	=33-	=33-	=33-	=33-	=33-	=33-	=33-	=33-	=33-	=33-	=33-
!	!	!LO:LB:g=original	!	!	!	!LO:LB:g=original	!	!	!	!	!	!	!	!LO:TX:b:t=P:problem=# below	!
4r	.	4r	.	4r	.	4r	.	2d\	-ne	2a\	-ne	2dd\	-ne	2ff#X\	-ne
4B-/	Et	4b-\	Et	4b-\	Et	4dd\	Et	.	.	.	.	.	.	.	.
4f\	quis	4a\	quis	4cc\	quis	4cc\	quis	2r	.	2r	.	2r	.	2r	.
4d\	di-	4b-\	di-	4dd\	di-	4ff\	di-	.	.	.	.	.	.	.	.
=34-	=34-	=34-	=34-	=34-	=34-	=34-	=34-	=34-	=34-	=34-	=34-	=34-	=34-	=34-	=34-
4e-X\	-spe-	4g\	-spe-	4b-\	-spe-	4ee-X\	-spe-	00r	.	00r	.	00r	.	00r	.
4B-/	-ret	4b-\	-ret	4b-\	-ret	4dd\	-ret	.	.	.	.	.	.	.	.
4.f\	Ve-	4.a\	Ve-	4.cc\	Ve-	4.cc\	Ve-	.	.	.	.	.	.	.	.
8f\	-ni-	8a\	-ni-	8cc\	-ni-	8cc\	-ni-	.	.	.	.	.	.	.	.
=35-	=35-	=35-	=35-	=35-	=35-	=35-	=35-	=35-	=35-	=35-	=35-	=35-	=35-	=35-	=35-
4B-,</	-am	4b-\	-am	4b-,<\	-am	4dd,<\	-am	.	.	.	.	.	.	.	.
4d\	vel	4f\	vel	4a\	vel	4ff\	vel	.	.	.	.	.	.	.	.
4B-/	quis	4b-\	quis	4dd\	quis	4dd\	quis	.	.	.	.	.	.	.	.
4c/	si-	4g\	si-	8cc\L	ſi-	4eeny\	ſi-	.	.	.	.	.	.	.	.
.	.	.	.	8b-\J	.	.	.	.	.	.	.	.	.	.	.
=36-	=36-	=36-	=36-	=36-	=36-	=36-	=36-	=36-	=36-	=36-	=36-	=36-	=36-	=36-	=36-
4d\	-ne	4f\	-ne	4a\	-ne	4ff\	-ne	.	.	.	.	.	.	.	.
4B-/	so-	4f\	so-	4b-\	ſo-	4dd\	ſo-	.	.	.	.	.	.	.	.
4.F/	-la-	4.a\	-la-	4.a\	-la-	4.cc\	-la-	.	.	.	.	.	.	.	.
8F/	-ti-	8a\	-ti-	8a\	-ti-	8cc\	-ti-	.	.	.	.	.	.	.	.
=37-	=37-	=37-	=37-	=37-	=37-	=37-	=37-	=37-	=37-	=37-	=37-	=37-	=37-	=37-	=37-
1B-	-o	1f	-o	1b-	-o	1b-	-o	.	.	.	.	.	.	.	.
=38-	=38-	=38-	=38-	=38-	=38-	=38-	=38-	=38-	=38-	=38-	=38-	=38-	=38-	=38-	=38-
*M3/2	*	*M3/2	*	*M3/2	*	*M3/2	*	*M3/2	*	*M3/2	*	*M3/2	*	*M3/2	*
*custos:g	*	*	*	*	*	*	*	*	*	*	*	*	*	*	*
00.r	.	00.r	.	00.r	.	00.r	.	1.r	.	2f\	Ab	2a\	Ab	2cc\	Ab
.	.	.	.	.	.	.	.	.	.	2d/	hoc	2b-\	hoc	2ffny\	hoc
*	*	*	*	*	*	*	*	*	*	*custos:f	*	*	*	*	*
.	.	.	.	.	.	.	.	.	.	2c/	re-	2cc\	re-	2ee\	re-
=39-	=39-	=39-	=39-	=39-	=39-	=39-	=39-	=39-	=39-	=39-	=39-	=39-	=39-	=39-	=39-
!	!	!	!	!	!	!	!	!	!	!LO:LB:g=original	!	!	!	!	!
.	.	.	.	.	.	.	.	2B-/	Ab	2f\	-qui-	1dd	-qui-	1ff	-qui-
.	.	.	.	.	.	.	.	2f\	hoc	2a\	.	.	.	.	.
.	.	.	.	.	.	.	.	2eny\	re-	2g\	-rat	2cc\	-rat	2gg\	-rat
=40-	=40-	=40-	=40-	=40-	=40-	=40-	=40-	=40-	=40-	=40-	=40-	=40-	=40-	=40-	=40-
.	.	.	.	.	.	.	.	1f	-qui-	1a	gra-	1cc	gra-	1aa	gra-
.	.	.	.	.	.	.	.	2f\	-rat	2f\	-ti-	2a\	-ti-	2aa\	-ti-
=41-	=41-	=41-	=41-	=41-	=41-	=41-	=41-	=41-	=41-	=41-	=41-	=41-	=41-	=41-	=41-
.	.	.	.	.	.	.	.	1c	gra-	1g	-am	1cc	-am	1.gg	-am
.	.	.	.	.	.	.	.	2c/	-ti-	4cc\	gra-	4cc\	gra-	.	.
.	.	.	.	.	.	.	.	.	.	4cc\	-ti-	4cc\	-ti-	.	.
=42-	=42-	=42-	=42-	=42-	=42-	=42-	=42-	=42-	=42-	=42-	=42-	=42-	=42-	=42-	=42-
!	!	!	!	!	!	!	!	!	!	!LO:TX:b:t=P:problem=# below	!	!	!	!	!
!LO:LB:g=original	!	!	!	!	!	!	!	!	!	!LO:N:acc=#	!	!	!	!	!
2g\	Ab	2g\	Ab	2g/	Ab	2dd\	Ab	1g	-am	1bn	-am	1dd	-am	0.r	.
2g\	hoc	2g\	hoc	2b-\	hoc	2b-/	hoc	.	.	.	.	.	.	.	.
2f\	re-	2f/	re-	2a\	re-	2cc\	re-	2r	.	2r	.	2r	.	.	.
=43-	=43-	=43-	=43-	=43-	=43-	=43-	=43-	=43-	=43-	=43-	=43-	=43-	=43-	=43-	=43-
1e-X	-qui-	1g	-qui-	1b-	-qui-	1ee-X	-qui-	0.r	.	0.r	.	0.r	.	.	.
2c/	-rat	2g\	-rat	2cc\	-rat	2ee-\	-rat	.	.	.	.	.	.	.	.
=44-	=44-	=44-	=44-	=44-	=44-	=44-	=44-	=44-	=44-	=44-	=44-	=44-	=44-	=44-	=44-
1B-	gra-	1b-	gra-	1dd	gra-	1dd	gra-	.	.	.	.	.	.	1.r	.
*	*	*custos:a	*	*	*	*custos:cc	*	*	*	*	*	*	*	*	*
2B-/	-ti-	2b-\	-ti-	2b-\	-ti-	2dd\	-ti-	.	.	.	.	.	.	.	.
=45-	=45-	=45-	=45-	=45-	=45-	=45-	=45-	=45-	=45-	=45-	=45-	=45-	=45-	=45-	=45-
*M2/2	*	*M2/2	*	*M2/2	*	*M2/2	*	*M2/2	*	*M2/2	*	*M2/2	*	*M2/2	*
*met(C|)	*	*met(C|)	*	*met(C|)	*	*met(C|)	*	*met(C|)	*	*met(C|)	*	*met(C|)	*	*met(C|)	*
!	!	!LO:LB:g=original	!	!	!	!LO:LB:g=original	!	!	!	!	!	!LO:PB:g=original	!	!	!
2f\	-am	2a\	-am	2cc\	-am	2cc\	-am	0r	.	0r	.	0r	.	2r	.
*	*	*	*	*custos:a	*	*	*	*	*	*	*	*	*	*	*
2r	.	2r	.	2r	.	2r	.	.	.	.	.	.	.	4cc\	tam
.	.	.	.	.	.	.	.	.	.	.	.	.	.	4cc\	prae-
=46-	=46-	=46-	=46-	=46-	=46-	=46-	=46-	=46-	=46-	=46-	=46-	=46-	=46-	=46-	=46-
*	*	*	*	*	*	*	*	*	*	*	*	*	*	*custos:b-	*
!	!	!	!	!LO:PB:g=original	!	!	!	!	!	!	!	!	!	!	!
0r	.	0r	.	0r	.	0r	.	.	.	.	.	.	.	2cc\	-dul-
!	!	!	!	!	!	!	!	!	!	!	!	!	!	!LO:LB:g=original	!
.	.	.	.	.	.	.	.	.	.	.	.	.	.	4b-/	-ci
.	.	.	.	.	.	.	.	.	.	.	.	.	.	4a/	con-
=47-	=47-	=47-	=47-	=47-	=47-	=47-	=47-	=47-	=47-	=47-	=47-	=47-	=47-	=47-	=47-
.	.	.	.	.	.	.	.	1r	.	1r	.	1r	.	2.g/	-sor-
.	.	.	.	.	.	.	.	.	.	.	.	.	.	4g/	-ti-
=48-	=48-	=48-	=48-	=48-	=48-	=48-	=48-	=48-	=48-	=48-	=48-	=48-	=48-	=48-	=48-
2r	.	2r	.	2r	.	2r	.	2r	.	2r	.	2r	.	2f/	-o
4F/	tam	4c/	tam	4a\	tam	4cc\	tam	4f\	tam	4a\	tam	4cc\	tam	2r	.
4F/	prae-	4c/	prae-	4a\	prae-	4cc\	prae-	4f\	prae-	4a\	prae-	4cc\	prae-	.	.
=49-	=49-	=49-	=49-	=49-	=49-	=49-	=49-	=49-	=49-	=49-	=49-	=49-	=49-	=49-	=49-
2F/	-dul-	2f\	-dul-	2a\	-dul-	2cc\	-dul-	2f\	-dul-	2f\	-dul-	2a\	-dul-	0r	.
4B-/	-ci	4f\	-ci	4b-\	-ci	4dd\	-ci	4B-/	-ci	4f\	-ci	4dd\	-ci	.	.
4F/	con	4c/	con	4a\	con	4ff\	con	4f\	con-	4f\	con-	4cc\	con-	.	.
=50-	=50-	=50-	=50-	=50-	=50-	=50-	=50-	=50-	=50-	=50-	=50-	=50-	=50-	=50-	=50-
2.c/	-ſor-	2.c/	-ſor-	2.b-\	-ſor-	2.eeny\	-ſor-	2.c/	-ſor-	2.g\	-sor-	2.cc\	-sor-	.	.
*	*	*	*	*	*	*	*	*custos:f	*	*	*	*	*	*	*
4c/	-ti-	4c/	-ti-	4cc\	-ti-	4ee\	-ti-	4c/	-ti-	4g\	-ti-	4cc\	-ti-	.	.
=51-	=51-	=51-	=51-	=51-	=51-	=51-	=51-	=51-	=51-	=51-	=51-	=51-	=51-	=51-	=51-
!	!	!	!	!	!	!	!	!LO:LB:g=original	!	!	!	!	!	!	!
2F/	-o	2c/	-o	2a\	-o	2ff\	-o	2f\	-o	2a\	-o	2cc\	-o	2r	.
2r	.	2r	.	2r	.	2r	.	2r	.	2r	.	2r	.	4ff\	tam
.	.	.	.	.	.	.	.	.	.	.	.	.	.	4ff\	prae-
=52-	=52-	=52-	=52-	=52-	=52-	=52-	=52-	=52-	=52-	=52-	=52-	=52-	=52-	=52-	=52-
0r	.	0r	.	0r	.	0r	.	0r	.	0r	.	0r	.	2ff\	-dul-
.	.	.	.	.	.	.	.	.	.	.	.	.	.	4ee-X\	-ci
.	.	.	.	.	.	.	.	.	.	.	.	.	.	4dd\	con-
=53-	=53-	=53-	=53-	=53-	=53-	=53-	=53-	=53-	=53-	=53-	=53-	=53-	=53-	=53-	=53-
.	.	.	.	.	.	.	.	.	.	.	.	.	.	2.cc\	-sor-
.	.	.	.	.	.	.	.	.	.	.	.	.	.	4cc\	-ti-
=54-	=54-	=54-	=54-	=54-	=54-	=54-	=54-	=54-	=54-	=54-	=54-	=54-	=54-	=54-	=54-
2r	.	2r	.	2r	.	2r	.	2r	.	2r	.	2r	.	2b-/	-o
4B-/	tam	4f\	tam	4b-\	tam	4ff\	tam	4B-/	tam	4f\	tam	4dd\	tam	2r	.
4B-/	prae-	4f\	prae-	4b-\	prae-	4ff\	prae-	4B-/	prae-	4f\	prae-	4dd\	prae-	.	.
=55-	=55-	=55-	=55-	=55-	=55-	=55-	=55-	=55-	=55-	=55-	=55-	=55-	=55-	=55-	=55-
*	*	*	*	*	*	*	*	*	*	*custos:g	*	*	*	*	*
2B-/	-dul-	2d/	-dul-	2b-\	-dul-	2ff\	-dul-	2B-/	-dul-	2f\	-dul-	2dd\	-dul-	0r	.
!LO:SIC:v:s=4EE-	!	!	!	!	!	!	!	!	!	!LO:LB:g=original	!	!	!	!	!
4D/	-ci	4g\	-ci	4b-\	-ci	4ee-X\	-ci	4e-X\	-ci	4g\	-ci	4b-\	-ci	.	.
4A/	con-	4d/	con-	4b-\	con-	4dd\	con	4B-/	con-	4f\	con-	4b-\	con-	.	.
=56-	=56-	=56-	=56-	=56-	=56-	=56-	=56-	=56-	=56-	=56-	=56-	=56-	=56-	=56-	=56-
2.F/	-ſor-	2.f\	-ſor-	2.a\	-sor-	2.cc\	-ſor-	2.f\	-ſor-	2.a\	-ſor-	2.cc\	-ſor-	.	.
4F/	-ti-	4f\	-ti-	4a\	-ti-	4cc\	-ti-	4f\	-ti-	4a\	-ti-	4cc\	-ti-	.	.
=57-	=57-	=57-	=57-	=57-	=57-	=57-	=57-	=57-	=57-	=57-	=57-	=57-	=57-	=57-	=57-
*custos:G	*	*	*	*	*	*	*	*	*	*	*	*	*	*	*
2B-/	-o	2d/	-o	2b-\	-o	2dd\	-o	2B-/	-o	2f\	-o	2b-\	-o	2dd\	con-
!LO:PB:g=original	!	!LO:TX:t=P:problem=niewyraźne źródło	!	!	!	!	!	!	!	!	!	!	!	!	!
2G/	con-	2d/	con-	2dd\	con-	2dd\	con-	2g\	con-	2g\	con-	2b-\	con-	2.gg\	-ſor-
=58-	=58-	=58-	=58-	=58-	=58-	=58-	=58-	=58-	=58-	=58-	=58-	=58-	=58-	=58-	=58-
2.d\	-ſor-	2.d/	-ſor-	2.a\	-ſor-	2.dd\	-ſor-	2.d\	-ſor-	2.a\	-ſor-	2.dd\	-ſor-	.	.
.	.	.	.	.	.	.	.	.	.	.	.	.	.	8ff\L	.
.	.	.	.	.	.	.	.	.	.	.	.	.	.	8eeny\J	.
!	!	!	!	!	!	!	!	!	!	!	!	!	!	!LO:TX:b:t=P:problem=# below	!
.	.	.	.	.	.	.	.	.	.	.	.	.	.	2ff#X\	-ti-
4d\	-ti-	4d/	-ti-	4a\	-ti-	4dd\	-ti-	4d\	-ti-	4a\	-ti-	4dd\	-ti-	.	.
=59-	=59-	=59-	=59-	=59-	=59-	=59-	=59-	=59-	=59-	=59-	=59-	=59-	=59-	=59-	=59-
*	*	*	*	*	*	*custos:dd	*	*	*	*	*	*custos:b-	*	*	*
!	!	!	!	!LO:TX:b:t=P:problem=# below	!	!	!	!	!	!	!	!	!	!	!
!	!	!	!	!LO:N:acc=#	!	!	!	!	!	!	!	!	!	!	!
1G	-o	1d	-o	1bn	-o	1dd	-o	1g	-o	1g	-o	1dd	-o	1gg	-o
=60-	=60-	=60-	=60-	=60-	=60-	=60-	=60-	=60-	=60-	=60-	=60-	=60-	=60-	=60-	=60-
*M3/2	*	*M3/2	*	*M3/2	*	*M3/2	*	*M3/2	*	*M3/2	*	*M3/2	*	*M3/2	*
!	!	!	!	!	!	!LO:PB:g=original	!	!	!	!	!	!LO:LB:g=original	!	!	!
00.r	.	00.r	.	00.r	.	00.r	.	2g\	Laus	2g\	Laus	2b-\	Laus	2dd\	Laus
!	!	!	!	!	!	!	!	!LO:TX:b:t=P:problem=# below	!	!	!	!	!	!	!
.	.	.	.	.	.	.	.	2f#X\	Pa-	2a\	Pa-	2a\	Pa-	2dd\	Pa-
*	*	*	*	*	*	*	*	*	*	*	*	*	*	*custos:ee-	*
.	.	.	.	.	.	.	.	2g\	-tri	2g\	-tri	2b-\	-tri	2dd\	-tri
=61-	=61-	=61-	=61-	=61-	=61-	=61-	=61-	=61-	=61-	=61-	=61-	=61-	=61-	=61-	=61-
!	!	!	!	!	!	!	!	!	!	!	!	!	!	!LO:LB:g=original	!
.	.	.	.	.	.	.	.	1c	Sit	2.g\	Sit	1cc	Sit	1ee-X	Sit
.	.	.	.	.	.	.	.	.	.	4a\	.	.	.	.	.
*	*	*	*	*	*	*	*	*custos:f	*	*	*	*	*	*	*
.	.	.	.	.	.	.	.	2B-/	cum	2b-y\	cum	2dd\	cum	2dd\	cum
=62-	=62-	=62-	=62-	=62-	=62-	=62-	=62-	=62-	=62-	=62-	=62-	=62-	=62-	=62-	=62-
!	!	!	!	!	!	!	!	!LO:LB:g=original	!	!	!	!	!	!	!
.	.	.	.	.	.	.	.	2.fny\	Fi-	2.a\	Fi-	2.cc\	Fi-	2.ffny\	Fi-
.	.	.	.	.	.	.	.	4f\	-li-	4a\	-li-	4cc\	-li-	4ff\	-li-
.	.	.	.	.	.	.	.	2f,<\	-o	2a,<\	-o	2cc,<\	-o	2ff,<\	-o
=63-	=63-	=63-	=63-	=63-	=63-	=63-	=63-	=63-	=63-	=63-	=63-	=63-	=63-	=63-	=63-
.	.	.	.	.	.	.	.	2f\	cum-	2a\	cum-	2cc\	cum-	2ff\	Cum-
.	.	.	.	.	.	.	.	2f\	-q(ue)	2a,<\	-q(ue)	2cc,<\	-q(ue)	2ff,<\	-q(ue)
*	*	*	*	*	*	*	*	*	*	*custos:g	*	*	*	*	*
.	.	.	.	.	.	.	.	2d\	am-	2b-\	am	2dd\	am-	2ff\	am-
=64-	=64-	=64-	=64-	=64-	=64-	=64-	=64-	=64-	=64-	=64-	=64-	=64-	=64-	=64-	=64-
!	!	!	!	!	!	!	!	!	!	!LO:LB:g=original	!	!	!	!	!
0.r	.	1.r	.	0.r	.	0.r	.	1e-X	-bo-	1g	bo-	1b-	-bo-	1gg	-bo-
.	.	.	.	.	.	.	.	2c/	-rum	2g\	-rum	2cc\	-rum	2gg\	-rum
=65-	=65-	=65-	=65-	=65-	=65-	=65-	=65-	=65-	=65-	=65-	=65-	=65-	=65-	=65-	=65-
!	!	!	!	!	!	!	!	!	!	!	!	!	!	!LO:TX:b:t=P:problem=# below	!
.	.	1.r	.	.	.	.	.	2.d\	spi-	2.a\	spi-	2.a\	Spi-	2.ff#X\	Spi-
.	.	.	.	.	.	.	.	4d\	-ri-	4a\	-ri-	4a\	-ri-	4ff#\	-ri-
!	!	!	!	!	!	!	!	!	!	!	!	!LO:TX:b:t=P:problem=# below	!	!	!
!	!	!	!	!	!	!	!	!	!	!	!	!LO:N:acc=#	!	!	!
.	.	.	.	.	.	.	.	2G/	-tu	2g\	-tu	2bn\	-tu	2gg\	-tu
=66-	=66-	=66-	=66-	=66-	=66-	=66-	=66-	=66-	=66-	=66-	=66-	=66-	=66-	=66-	=66-
2d\	Vt	2f\	Vt	2a\	Vt	2dd\	Vt	00.r	.	00.r	.	00.r	.	00.r	.
2c/	nos	2g\	nos	2cc\	nos	2eeny\	nos	.	.	.	.	.	.	.	.
*	*	*custos:g	*	*custos:b-	*	*	*	*	*	*	*	*	*	*	*
!	!	!LO:SIC:v:s=2f#	!	!	!	!	!	!	!	!	!	!	!	!	!
!	!	!	!	!	!	!LO:TX:b:t=P:problem=# below	!	!	!	!	!	!	!	!	!
2d\	An-	2f\	An-	2a\	An-	2ff#X\	An-	.	.	.	.	.	.	.	.
=67-	=67-	=67-	=67-	=67-	=67-	=67-	=67-	=67-	=67-	=67-	=67-	=67-	=67-	=67-	=67-
!	!	!LO:LB:g=original	!	!LO:LB:g=original	!	!	!	!	!	!	!	!	!	!	!
1G	-nae	1g	-nae	1b-y	-nae	2gg,<\	-nae	.	.	.	.	.	.	.	.
.	.	.	.	.	.	4dd\	ſuf-	.	.	.	.	.	.	.	.
.	.	.	.	.	.	4ee\	.	.	.	.	.	.	.	.	.
2F/	ſuf-	2a\	ſuf-	2cc\	ſuf-	2ffny\	.	.	.	.	.	.	.	.	.
=68-	=68-	=68-	=68-	=68-	=68-	=68-	=68-	=68-	=68-	=68-	=68-	=68-	=68-	=68-	=68-
2.c/	-fra-	2.g\	-fra-	2.cc\	-fra-	2.ee\	-fra-	.	.	.	.	.	.	.	.
4c/	-gi-	4g\	-gi-	4cc\	-gi-	4ee\	-gi-	.	.	.	.	.	.	.	.
2c,</	-o	2g,<\	-o	2cc,<\	-o	2ee,<\	-o	.	.	.	.	.	.	.	.
=69-	=69-	=69-	=69-	=69-	=69-	=69-	=69-	=69-	=69-	=69-	=69-	=69-	=69-	=69-	=69-
2c/	Mor-	2g\	Mor-	2cc\	Mor-	2ee\	Mor-	.	.	.	.	.	.	.	.
2c/	-tis	2g\	-tis	2cc\	-tis	2ee\	-tis	.	.	.	.	.	.	.	.
2A/	iu-	2a\	iu-	2cc\	iu-	2ff\	iu-	.	.	.	.	.	.	.	.
=70-	=70-	=70-	=70-	=70-	=70-	=70-	=70-	=70-	=70-	=70-	=70-	=70-	=70-	=70-	=70-
1B-	-vet	1f	-vet	2.b-\	-vet	1dd	-vet	0.r	.	0.r	.	0.r	.	0.r	.
.	.	.	.	4cc\	.	.	.	.	.	.	.	.	.	.	.
2G/	in	2b-\	in	2dd\	in	4gg\	in	.	.	.	.	.	.	.	.
.	.	.	.	.	.	4ff\	.	.	.	.	.	.	.	.	.
=71-	=71-	=71-	=71-	=71-	=71-	=71-	=71-	=71-	=71-	=71-	=71-	=71-	=71-	=71-	=71-
!	!	!	!	!LO:TX:b:t=P:problem=# below	!	!	!	!	!	!	!	!	!	!	!
2.A/	o-	2.a\	o-	2.cc#X\	o-	2.ee\	o-	.	.	.	.	.	.	.	.
4A/	-bi-	4a\	-bi-	4cc#\	-bi-	4ee\	-bi-	.	.	.	.	.	.	.	.
*custos:g	*	*	*	*	*	*	*	*	*	*	*	*	*	*	*
!	!	!	!	!	!	!LO:TX:b:t=P:problem=# below	!	!	!	!	!	!	!	!	!
2d\	-tu	2a\	-tu	2dd\	-tu	2ff#X\	-tu	.	.	.	.	.	.	.	.
=72-	=72-	=72-	=72-	=72-	=72-	=72-	=72-	=72-	=72-	=72-	=72-	=72-	=72-	=72-	=72-
*M2/2	*	*M2/2	*	*M2/2	*	*M2/2	*	*M2/2	*	*M2/2	*	*M2/2	*	*M2/2	*
*met(C|)	*	*met(C|)	*	*met(C|)	*	*met(C|)	*	*met(C|)	*	*met(C|)	*	*met(C|)	*	*met(C|)	*
*	*	*	*	*	*	*lig	*	*	*	*	*	*lig	*	*	*
!LO:LB:g=original	!	!	!	!	!	!	!	!	!	!	!	!	!	!	!
4g\	A-	2d/	A-	1b-	A-	1dd	A-	1G	A-	1g	A-	1b-	A-	4.dd\	A-
4f\	.	.	.	.	.	.	.	.	.	.	.	.	.	.	.
.	.	.	.	.	.	.	.	.	.	.	.	.	.	8eeny\	.
4e-X\	.	2g\	-men	.	.	.	.	.	.	.	.	.	.	4ffny\	.
4d\	.	.	.	.	.	.	.	.	.	.	.	.	.	4dd\	.
=73-	=73-	=73-	=73-	=73-	=73-	=73-	=73-	=73-	=73-	=73-	=73-	=73-	=73-	=73-	=73-
2.c/	-men	1.g	A-	2.g/	.	1cc	.	4c/	-men	1g	-men	1cc	-men	1ee-X	-men
.	.	.	.	.	.	.	.	4d\	.	.	.	.	.	.	.
.	.	.	.	.	.	.	.	4eny\	.	.	.	.	.	.	.
8B-/L	.	.	.	4a\	.	.	.	4f\	.	.	.	.	.	.	.
8A/J	.	.	.	.	.	.	.	.	.	.	.	.	.	.	.
*	*	*	*	*	*	*Xlig	*	*	*	*	*	*Xlig	*	*	*
=74-	=74-	=74-	=74-	=74-	=74-	=74-	=74-	=74-	=74-	=74-	=74-	=74-	=74-	=74-	=74-
*	*	*	*	*	*	*	*	*lig	*	*lig	*	*	*	*	*
4G/	A-	.	.	1b-	-men	1dd,<	-men	1g	.	1g	A-	1b-	.	2dd,<\	.
4A/	.	.	.	.	.	.	.	.	.	.	.	.	.	.	.
4B-/	.	2d/	-men	.	.	.	.	.	.	.	.	.	.	2.gg\	A-
4c/	.	.	.	.	.	.	.	.	.	.	.	.	.	.	.
=75-	=75-	=75-	=75-	=75-	=75-	=75-	=75-	=75-	=75-	=75-	=75-	=75-	=75-	=75-	=75-
1d	.	1d	A-	1a	A-	1dd	A-	1d	A-	1a	.	1dd	A-	.	.
!	!	!	!	!	!	!	!	!	!	!	!	!	!	!LO:TX:b:t=P:problem=# below	!
.	.	.	.	.	.	.	.	.	.	.	.	.	.	8ff#X\L	.
.	.	.	.	.	.	.	.	.	.	.	.	.	.	8eeny\J	.
.	.	.	.	.	.	.	.	.	.	.	.	.	.	2ff#X\	-men
!	!	!	!	!	!	!	!	!	!	!	!	!	!	!LO:TX:b:t=P:problem=# below	!
*	*	*	*	*	*	*	*	*Xlig	*	*Xlig	*	*	*	*	*
=76-	=76-	=76-	=76-	=76-	=76-	=76-	=76-	=76-	=76-	=76-	=76-	=76-	=76-	=76-	=76-
!	!	!	!	!LO:N:acc=#	!	!	!	!	!	!	!	!	!	!	!
00G;;	-men	00d;;	-men	00bn;;	-men	00dd;;	-men	00g;;	-men	00g;;	-men	00dd;;	-men	00gg;	.
=-	=-	=-	=-	=-	=-	=-	=-	=-	=-	=-	=-	=-	=-	=-	=-
*-	*-	*-	*-	*-	*-	*-	*-	*-	*-	*-	*-	*-	*-	*-	*-
!!!system-decoration: [(s1,s2,s3,s4)][(s5,s6,s7,s8)]
!!!RDF**kern: < = below
!!!RDF**kern: > = above
!!!ENC: Anastazja Marusiak
!!!END: 2021-10-05
!!!ENC: Marta Chmielewska
!!!END: 2021-10-21
